X:8480
T:KEROUEZEE -1-
Z: Yves BELOTTEAU
M:4/4
L:1/4
Q:1/4=60
K:C
|edcB/2c/2 ddec|edcB/2c/2 d2e2|c3/2d/2ef edgg|edcB/2c/2 d2c2|
edcB/2c/2 ddec|edcB/2c/2 d2e2|c3/2d/2ef edgg|edcB/2c/2 d2c2|
gecB/2c/2 ddec|gecB/2c/2 d2c2|cGge cB/2c/2dd|ecge cB/2c/2d2|
c2cG cde2|d2c2 f4|e4 d4|c7/2|
